X:1
T:Title
%%score { 1 | 2 }
L:1/8
M:3/4
K:D
V:1 treble nm="Grand Piano"
V:2 bass 
V:1
 z2 z[Q:1/4=100] [FA] AA | [Fd]3 [GB] [FA]F | D3 F FF | B3 B AF |[M:3/8] [CE]3 | [CA][EA][GA] | %6
[M:3/4] [Fd]3 [Gd] [Ad][Ac] | [GB]3 [GB] [^GB][GB] | [^Ge][DGB] [EGc]2 [DGB]2 |[M:3/8] [CA]3 | %10
 .[Ae].[Ge].[Ge] |[M:3/4] .[Ge]2 z [Gc] [GB][GA] | [Fd]3 .[Ge] .[Ge].[Ge] | %13
 .[Ge]2 z [Gc] [GB][GA] |[M:3/8] [Fd]3 | [A,DF][A,DF][A,EF] |[M:3/4] [B,DB]3 [DFB] [Fd][Fd] | %17
 c3 c Bc | d[A,FA] [A,DF]2[K:bass] [G,CE]2 |[M:3/8] [F,D]3 |] %20
V:2
 z2 z [D,D] [F,D][A,G] | [D,A,]3 [D,D] [D,D][D,A,D] | [D,F,]3 [D,A,D] [F,A,D][K:treble][A,D] | %3
 [G,DG]3 [G,DG][K:bass] [F,D][D,A,D] |[M:3/8] [A,,A,]3 | [A,,A,][C,A,][E,A,] | %6
[M:3/4] [D,A,]3 [E,A,] [F,D][F,D] | [G,D]3 [G,D] [E,D][E,D] | [E,B,]E, E,2 E,2 |[M:3/8] A,,3 | %10
 [A,C][A,C][A,C] |[M:3/4] [A,C]3 [A,,A,] [B,,A,][C,A,] | [D,A,]3 [A,C] [A,C][A,C] | %13
 [A,C]3 [A,,A,] [B,,A,][C,A,] |[M:3/8] [D,A,]3 | D,D,C, |[M:3/4] B,,3 B,, [B,,B,][D,B,] | %17
 [F,^A,F]3 [F,A,E] [G,B,D][G,B,E] | [F,A,F]D, A,,2 A,,2 |[M:3/8] D,3 |] %20

